vms/client/nx_vms_client_core/external_resources/skin/24x16/Outline/search_drop.svg

<svg width="24" height="16" viewBox="0 0 24 16" fill="none" xmlns="http://www.w3.org/2000/svg">
    <g class="24x16/Outline/search_drop">
        <path fill-rule="evenodd" class="Primary" clip-rule="evenodd"
              d="M7 11C9.20914 11 11 9.20914 11 7C11 4.79086 9.20914 3 7 3C4.79086 3 3 4.79086 3 7C3 9.20914 4.79086 11 7 11ZM7 12C8.20063 12 9.30242 11.5768 10.1644 10.8715L13.6464 14.3536L14.3535 13.6464L10.8715 10.1644C11.5768 9.30244 12 8.20064 12 7C12 4.23858 9.76142 2 7 2C4.23858 2 2 4.23858 2 7C2 9.76142 4.23858 12 7 12ZM16.3535 6.64645L15.6464 7.35355L19.5 11.2071L23.3535 7.35355L22.6464 6.64645L19.5 9.79289L16.3535 6.64645Z"
              fill="#7B929D"/>
    </g>
</svg>

<svg xmlns="http://www.w3.org/2000/svg" width="24" height="16" fill="none" viewBox="0 0 24 16">
  <g class="24x16/Outline/search_drop">
    <path fill="#ffffff" fill-rule="evenodd" d="M7 11a4 4 0 1 0 0-8 4 4 0 0 0 0 8Zm0 1a4.98 4.98 0 0 0 3.164-1.129l3.482 3.483.707-.708-3.482-3.482A5 5 0 1 0 7 12Zm9.354-5.354-.708.708 3.854 3.853 3.854-3.853-.708-.708L19.5 9.793l-3.146-3.147Z" class="Primary" clip-rule="evenodd"/>
  </g>
</svg>
